X:125
T: Bridget Flynn's
S: M. Mulvihill
Z: B.Black
R: reel
M: 4/4
L: 1/8
K: Edor
FA|BE (3EFE DEFA|BE (3EFE D2 FA|BE (3EDE BAFA|\
ABAF E2 FA |
BE (3EFE DEFA|BE (3EFE D2 FA|BE (3EDE BAFA|ABAF E2 :|
FA|Beed e2-ed|(3Bcd ef gfed|Bddc d4|BcdB ADFA |
Beed e2 ed|(3Bcd ef gfef|g4 f3 d|BcdB A2 :|
